svgs/solid/train-subway.svg

<svg xmlns="http://www.w3.org/2000/svg" viewBox="0 0 448 512"><!-- Font Awesome Pro 6.0.0-alpha2 by @fontawesome - https://fontawesome.com License - https://fontawesome.com/license (Commercial License) --><path d="M352 0H96C42.98 0 0 42.98 0 96V352C0 401.504 37.611 441.779 85.736 446.965L34.359 498.342C29.32 503.383 32.889 512 40.016 512H81.949C86.193 512 90.264 510.314 93.264 507.312L152.578 448H295.422L354.736 507.312C357.736 510.314 361.807 512 366.051 512H407.984C415.111 512 418.68 503.383 413.641 498.342L362.264 446.965C410.389 441.779 448 401.504 448 352V96C448 42.98 405.02 0 352 0ZM64 352C64 334.375 78.375 320 96 320S128 334.375 128 352S113.625 384 96 384S64 369.625 64 352ZM208 224C208 241.672 193.674 256 176 256H96C78.4 256 64 241.6 64 224V128C64 110.4 78.4 96 96 96H176C193.674 96 208 110.326 208 128V224ZM352 384C334.375 384 320 369.625 320 352S334.375 320 352 320S384 334.375 384 352S369.625 384 352 384ZM384 224C384 241.6 369.6 256 352 256H272C254.326 256 240 241.672 240 224V128C240 110.326 254.326 96 272 96H352C369.6 96 384 110.4 384 128V224Z"/></svg>

<svg xmlns="http://www.w3.org/2000/svg" viewBox="0 0 448 512"><!--! Font Awesome Pro 6.4.0 by @fontawesome - https://fontawesome.com License - https://fontawesome.com/license (Commercial License) Copyright 2023 Fonticons, Inc. --><path d="M96 0C43 0 0 43 0 96V352c0 48 35.2 87.7 81.1 94.9l-46 46C28.1 499.9 33.1 512 43 512H82.7c8.5 0 16.6-3.4 22.6-9.4L160 448H288l54.6 54.6c6 6 14.1 9.4 22.6 9.4H405c10 0 15-12.1 7.9-19.1l-46-46c46-7.1 81.1-46.9 81.1-94.9V96c0-53-43-96-96-96H96zM64 128c0-17.7 14.3-32 32-32h80c17.7 0 32 14.3 32 32v96c0 17.7-14.3 32-32 32H96c-17.7 0-32-14.3-32-32V128zM272 96h80c17.7 0 32 14.3 32 32v96c0 17.7-14.3 32-32 32H272c-17.7 0-32-14.3-32-32V128c0-17.7 14.3-32 32-32zM64 352a32 32 0 1 1 64 0 32 32 0 1 1 -64 0zm288-32a32 32 0 1 1 0 64 32 32 0 1 1 0-64z"/></svg>
